X: 10304
T: QUICK STEP No. 4.
C:
%R: quickstep
B: Elias Howe "The Musician's Companion" Part 1 1842 p.30 #4
S: http://imslp.org/wiki/The_Musician's_Companion_(Howe,_Elias)
Z: 2015 John Chambers <jc:trillian.mit.edu>
N: The 1st strain has 8.5 bars.  You may "fix" this however you like, or not.
M: 2/4
L: 1/16
K: C
% - - - - - - - - - - - - - - - - - - - - - - - - -
|:\
C2CE GAGE | Ad^cd dAAB | cBcd egfa | gefd ecc2 :: c2ec gcec | defg afdf |
c2ec gcec | defd BcdB | c2ec gcec | defg afdf | cdcA G2fa | gefd ecc2 :|
% - - - - - - - - - - - - - - - - - - - - - - - - -
